X:1135
T:Sa mhuir ni Dilis eilin Og.
M:C
L:1/8
Q:1/4=90 "Andante"
N:the dot on the dotted-quaver/two-demisemiquaver
N:groupings is only printed explicitly in bar 4
Z:Jack Campin * www.campin.me.uk * 2009
K:D
A>A|d2  d>e       dc c z/d/|BA B=c BA F z/B/| AG FE D>EFA |!B2 c3/B//c// Hd2
A>A|d2  d>e       dc c z/d/|BA B=c BA F z/B/|!A>GFE D>EF>G| B2 c3/B//c//  d2
zA |B>c c3/B//c// dD D2    |!
"^So" d2        d>e f2 zf|fg fe  fd    B2|
      d3/e//f// ed  dc B2|BA BA A>G    Fa|!
      ag````````fe  d2 dc|BA B=c       BA HF
 z/B/|AGFE          D>EFA|!B2 c3/B//c// d2
zA   |B>c c3/B//c// de`fz|ez cz        d2|]

